icons/lines/bag-two.svg

<svg xmlns="http://www.w3.org/2000/svg" width="24" height="24" viewBox="0 0 24 24" fill="none" stroke="currentColor" stroke-width="2" stroke-linecap="round" stroke-linejoin="round" >
  <path d="M7.5 7.67001V6.70001C7.5 4.45001 9.31 2.24001 11.56 2.03001C14.24 1.77001 16.5 3.88001 16.5 6.51001V7.89001" stroke-miterlimit="10"/>
  <path d="M8.99983 22H14.9998C19.0198 22 19.7398 20.39 19.9498 18.43L20.6998 12.43C20.9698 9.99 20.2698 8 15.9998 8H7.99983C3.72983 8 3.02983 9.99 3.29983 12.43L4.04983 18.43C4.25983 20.39 4.97983 22 8.99983 22Z" stroke-miterlimit="10"/>
  <path d="M15.4955 12H15.5045"/>
  <path d="M8.49451 12H8.50349"/>
  </svg>

<svg xmlns="http://www.w3.org/2000/svg" width="24" height="24" viewBox="0 0 24 24" fill="none" stroke="currentColor" stroke-width="2" stroke-linecap="round" stroke-linejoin="round">
  <path d="M15 22c4.02 0 4.74-1.61 4.95-3.57l.75-6C20.97 9.99 20.27 8 16 8H8c-4.27 0-4.97 1.99-4.7 4.43l.75 6C4.26 20.39 4.98 22 9 22z" />
  <path d="M15.496 12h.01" />
  <path d="M7.5 7.67V6.7c0-2.25 1.81-4.46 4.06-4.67a4.5 4.5 0 0 1 4.94 4.48v1.38" />
  <path d="M8.495 12h.01" />
</svg>
